X: 1
T: Pigs In The Parlour - play with Polka d'Aveyron?
R: polka
M: 2/4
L: 1/8
K: Gmaj
C: Clare Connors, Columbia, MO ©200?
"G" DE/2F/2 GA | BD G>B | "D" AF Ac | "G" e/2d/2e/2d/2 B2 |
"G" DE/2F/2 GA | BD G>B | "D7" d/2e/2d/2B/2 cF | "G" A2 G2 :|
"G" de/2f/2 ga/2g/2 | "Am" f/2e/2f/2e/2 A2 | cd/2e/2 "D7" fe | "G" e2 d2 |
"G" de/2f/2 ga/2g/2 | "Am" f/2e/2f/2e/2 "A7"a>g | "D7" fe/2d/2 cF | A2 "G" G2 :|
